!!!COM: Music21
!!!OTL: A raposa blanca
!!!OMV: pezas_valses_a-raposa-blanca_a-raposa-blanca-partitura.musicxml
**kern
*I"Bagpipes
*I'Bag
*clefG^2
*k[b-e-a-]
*E-:
*M3/4
=1
!LO:TX:a:t=Presto
*MM170
!LO:TX:a:t=[quarter]=170
4gg
4gg
4gg
=
4aa-
4gg
4ff
=
4gg
2cc
=
2cc
4dd
=
4ee-
4ff
4gg
=
[2.gg
=
2.gg]
=
4gg
4gg
4gg
=
4aa-
4gg
4ff
=
4gg
2cc
=
2cc
4dd
=
4ee-
4ff
4ee-
=
4dd
4cc
4bn
!!linebreak:original
=
[2.cc
!!linebreak:original
=
2.cc]
=||
*M3/4
!LO:TX:a:t=Presto
*MM170
!LO:TX:a:t=[quarter]=170
4gg
4gg
4gg
=
4aa-
4gg
4ff
=
4gg
2cc
=
2cc
4dd
=
4ee-
4ff
4gg
=
[2.gg
=
2.gg]
=
4gg
4gg
4gg
=
4aa-
4gg
4ff
=
4gg
2cc
=
2cc
4dd
=
4ee-
4ff
4ee-
!!linebreak:original
=
4dd
4cc
4bn
=
[2.cc
!!linebreak:original
=
2.cc]
=||
4gg
4ee-
4cc
=
4gg
4ee-
4cc
=
8aa-L
8ggJ
8aa-L
8bb-J
4ccc
=
2gg
4cc
=
4gg
4ee-
4cc
=
4gg
4ee-
4cc
=
4ff
4ee-
4dd
=
2.cc
=||
4gg
4ee-
4cc
=
4gg
4ee-
4cc
=
8aa-L
8ggJ
8aa-L
8bb-J
4ccc
!!linebreak:original
=
2gg
4cc
=
4gg
4ee-
4cc
=
4gg
4ee-
4cc
=
4ff
4ee-
4dd
=
2.cc
=||
4gg
4gg
4gg
=
4aa-
4bb-
4ccc
=
2gg
4ee-
=
2cc
4ee-
!!linebreak:original
=
4ff
4ff
4ff
=
4ff
4gg
4aa-
=
[2.gg
=
2.gg]
=
4aa-
4aa-
4aa-
=
4aa-
4bb-
4ccc
=
2gg
4ee-
=
2cc
4dd
=
4ee-
4ff
4ee-
=
4dd
4cc
4bn
=
[2.cc
=
2.cc]
=||
4gg
4gg
4gg
!!linebreak:original
=
4aa-
4bb-
4ccc
=
2gg
4ee-
=
2cc
4ee-
!!linebreak:original
=
4ff
4ff
4ff
=
4ff
4gg
4aa-
=
[2.gg
=
2.gg]
=
4aa-
4aa-
4aa-
=
4aa-
4bb-
4ccc
=
2gg
4ee-
=
2cc
4dd
=
4ee-
4ff
4gg
=
4gg
4aa-
4bbn
!!linebreak:original
=
[2.ccc
=
2.ccc]
=||
4ccc
4ccc
4ccc
=
4ddd
4ccc
4bbn
=
2ccc
4gg
=
2ee-
4cc
=
4ff
4ff
4ff
=
4ff
4gg
4aa-
=
[2.gg
=
2.gg]
=
4ccc
4ccc
4ccc
=
4ddd
4ccc
4bbn
=
2ccc
4gg
!!linebreak:original
=
2ee-
4ff
!!linebreak:original
=
4gg
4aa-
4gg
=
4ff
4ee-
4dd
=
[2.cc
=
2.cc]
=||
4ccc
4ccc
4ccc
=
4ddd
4ccc
4bbn
=
2ccc
4gg
=
2ee-
4cc
=
4ff
4ff
4ff
=
4ff
4gg
4aa-
=
[2.gg
=
2.gg]
=
4ccc
4ccc
4ccc
!!pagebreak:original
=
4ddd
4ccc
4bbn
=
2ccc
4gg
=
2ee-
4ff
!!linebreak:original
=
4gg
4aa-
4gg
=
4ff
4ee-
4dd
=
2.cc
=||
2cc
4dd
=
8ee-L
8ccJ
8ee-L
8ccJ
8ggL
8ccJ
=
8ee-L
8ccJ
8ee-L
8ccJ
8ggL
8ccJ
=
8ffL
8ccJ
8ffL
8ccJ
8aa-L
8ccJ
=
8ffL
8ccJ
8ffL
8ccJ
8aa-L
8ccJ
!!linebreak:original
=
8ee-L
8ccJ
8ee-L
8ccJ
8ggL
8ccJ
=
8ee-L
8ccJ
8ee-L
8ccJ
8ggL
8ccJ
=
8ffL
8ee-J
8ddL
8ee-J
8ccL
8bnJ
=
2.cc
=||
2cc
4dd
=
8ee-L
8ccJ
8ee-L
8ccJ
8ggL
8ccJ
=
8ee-L
8ccJ
8ee-L
8ccJ
8ggL
8ccJ
=
8ffL
8ccJ
8ffL
8ccJ
8aa-L
8ccJ
!!linebreak:original
=
8ffL
8ccJ
8ffL
8ccJ
8aa-L
8ccJ
!!linebreak:original
=
8ee-L
8ccJ
8ee-L
8ccJ
8ggL
8ccJ
=
8ee-L
8ccJ
8ee-L
8ccJ
8ggL
8ccJ
=
8ffL
8ee-J
8ddL
8ee-J
8ccL
8bnJ
=
2.cc
=||
*-
